projects/ccf-eui/src/assets/icons/organ-icons/organ-icon-lung-left.svg

<svg width="64" height="64" viewBox="0 0 64 64" fill="currentColor" xmlns="http://www.w3.org/2000/svg">
<g clip-path="url(#clip0_1795_285)">
<path d="M36.48 15.7653C36.5037 15.1393 36.6873 14.5297 37.0133 13.9947C37.2499 13.5745 37.5987 13.2283 38.0206 12.9948C38.4425 12.7612 38.9209 12.6495 39.4026 12.672C40.287 12.6904 41.1411 12.9975 41.8346 13.5467C42.3953 13.9758 42.9164 14.4542 43.392 14.976C45.3474 16.9317 47.1053 19.0754 48.64 21.376C50.523 24.2204 52.1916 27.2011 53.632 30.2933C55.3849 34.1022 56.5639 38.1496 57.1306 42.304C58.112 49.3867 57.5573 53.44 55.5306 54.4853C52.9066 55.8507 42.624 54.9333 37.8666 51.7547C37.3183 51.3895 36.9116 50.8474 36.7146 50.2187C36.5809 49.7312 36.5021 49.2303 36.48 48.7253V15.7653Z" />
<path d="M34.1334 22.272C32.8986 21.8621 31.8232 21.076 31.058 20.0238C30.2928 18.9716 29.8762 17.7063 29.8667 16.4053V6.54935H25.6V16.4053C25.595 17.71 25.1805 18.9801 24.415 20.0365C23.6494 21.0929 22.5716 21.8823 21.3334 22.2933V25.8347H34.1334V22.272Z" />
</g>
<defs>
<clipPath id="clip0_1795_285">
<rect width="64" height="64" />
</clipPath>
</defs>
</svg>

<svg xmlns="http://www.w3.org/2000/svg" width="64" height="64" fill="currentColor" viewBox="0 0 64 64"><g clip-path="url(#a)"><path d="M36.48 15.765a3.7 3.7 0 0 1 .533-1.77 2.6 2.6 0 0 1 2.39-1.323 4.05 4.05 0 0 1 2.432.875q.842.645 1.557 1.429a42 42 0 0 1 5.248 6.4 69 69 0 0 1 4.992 8.917 42.5 42.5 0 0 1 3.499 12.011c.981 7.083.426 11.136-1.6 12.181-2.624 1.366-12.907.448-17.664-2.73a2.88 2.88 0 0 1-1.152-1.536 6.8 6.8 0 0 1-.235-1.494zM34.133 22.272a6.23 6.23 0 0 1-4.266-5.867V6.55H25.6v9.856a6.23 6.23 0 0 1-4.267 5.888v3.542h12.8z"/></g><defs><clipPath id="a"><path d="M0 0h64v64H0z"/></clipPath></defs></svg>
